X:1
T:[ID 7-194]
T:[ID 7-194]
T:Bezeichnung standardisiert: Menuet [mit Trio] Menuet Con Trio
T:Urheber unbekannt Datum in der hier transkribierten schriftlichen Quelle: 1776 - 1791
C:Urheber unbekannt
C:Datum in der hier transkribierten schriftlichen Quelle: 1776 - 1791
L:1/8
M:3/4
K:F
V:1 treble 
V:1
 f2 c2 c2 | (3fga c4 | g2 c2 c2 | (3gab c4 | fa c'2 b2 | a4 gf | ef f3 e/f/ | g6 :: g4 (3efg | %9
 g4 (3efg | g2 c2 d=B | c4 eg | bgafeg | fcBAGF | C2 F2 E2 | F6 :|[M:3/4]"^Trio" !fermata!c4 AF | %17
 E2 F2 G2 | c4 AF | E2 F2 G2 | AFAc f2 | eceg b2 | a2 gfef | g6 :: g4 ec | B2 B2 B2 | g4 ec | %27
 A2 A2 A2 | c4 AF | E2 F2 G2 | Acfage | f6 :| %32

